X:6909
T:the Highlanders Lamentation
O:england
R:Slow air
M:4/4
L:1/8
K:G
B/2A/2 | \
G2GE D3E | G2GA cBAG | cBce dBAG | ABAG E2BA | \
G2GB D3E | G2G2 g3f |
edcB ABcd | B2G2 G3 ::\
f |\
gfef  d3d | gfga b3a |
e2ge dBAG | ABAG E2BA |\
G2GB D3E | G2G2 g3f | edcB ABcd | B2G2 G3 :|
